src/pos-icons/weather-lightning.svg

<svg height="24" viewBox="0 0 24 24" width="24" xmlns="http://www.w3.org/2000/svg"><path d="m6 16a5 5 0 0 1 -5-5 5 5 0 0 1 5-5c1-2.35 3.3-4 6-4 3.43 0 6.24 2.66 6.5 6.03l.5-.03a4 4 0 0 1 4 4 4 4 0 0 1 -4 4h-1a1 1 0 0 1 -1-1 1 1 0 0 1 1-1h1a2 2 0 0 0 2-2 2 2 0 0 0 -2-2h-2v-1a5 5 0 0 0 -5-5c-2.5 0-4.55 1.82-4.94 4.19-.33-.12-.69-.19-1.06-.19a3 3 0 0 0 -3 3 3 3 0 0 0 3 3h1a1 1 0 0 1 1 1 1 1 0 0 1 -1 1zm6-5h3l-2 4h2l-3.75 7 .75-5h-2.5z"/></svg>

<?xml version="1.0" encoding="UTF-8"?><!DOCTYPE svg PUBLIC "-//W3C//DTD SVG 1.1//EN" "http://www.w3.org/Graphics/SVG/1.1/DTD/svg11.dtd"><svg xmlns="http://www.w3.org/2000/svg" xmlns:xlink="http://www.w3.org/1999/xlink" version="1.1" id="mdi-weather-lightning" width="24" height="24" viewBox="0 0 24 24"><path d="M6,16A5,5 0 0,1 1,11A5,5 0 0,1 6,6C7,3.65 9.3,2 12,2C15.43,2 18.24,4.66 18.5,8.03L19,8A4,4 0 0,1 23,12A4,4 0 0,1 19,16H18A1,1 0 0,1 17,15A1,1 0 0,1 18,14H19A2,2 0 0,0 21,12A2,2 0 0,0 19,10H17V9A5,5 0 0,0 12,4C9.5,4 7.45,5.82 7.06,8.19C6.73,8.07 6.37,8 6,8A3,3 0 0,0 3,11A3,3 0 0,0 6,14H7A1,1 0 0,1 8,15A1,1 0 0,1 7,16H6M12,11H15L13,15H15L11.25,22L12,17H9.5L12,11Z" /></svg>
